img/footer__vk.svg

<svg width="30" height="30" viewBox="0 0 30 30" fill="none" xmlns="http://www.w3.org/2000/svg">
<path d="M0 15.0005C0 6.71622 6.71573 0.000488281 15 0.000488281C23.2843 0.000488281 30 6.71622 30 15.0005C30 23.2848 23.2843 30.0005 15 30.0005C6.71573 30.0005 0 23.2848 0 15.0005Z" fill="#6B6868"/>
<g clip-path="url(#clip0)">
<path d="M25.881 19.84C25.8475 19.7743 25.814 19.7414 25.814 19.7086C25.4457 19.0187 24.709 18.1973 23.6375 17.2117L23.604 17.1789C23.1017 16.7189 22.8003 16.4232 22.6664 16.259C22.432 15.9633 22.365 15.6676 22.499 15.3391C22.5994 15.1091 22.9343 14.6163 23.537 13.8607C23.8384 13.4664 24.1063 13.1379 24.2737 12.9079C25.5796 11.1996 26.1824 10.0825 25.9814 9.58975L25.9145 9.49119C25.881 9.42548 25.747 9.35978 25.5461 9.29407C25.3452 9.22836 25.1108 9.22836 24.8095 9.26122L21.4944 9.29407C21.4274 9.29407 21.327 9.29407 21.26 9.29407C21.193 9.29407 21.126 9.32692 21.126 9.32692C21.0926 9.32692 21.0926 9.35978 21.0591 9.35978L21.0256 9.39263C20.9921 9.42548 20.9586 9.45834 20.8916 9.52404C20.8582 9.58975 20.7912 9.65546 20.7912 9.72116C20.4228 10.6411 20.021 11.4624 19.5522 12.2509C19.2843 12.7108 19.0165 13.1051 18.7821 13.4664C18.5477 13.795 18.3467 14.0578 18.1793 14.2221C18.0119 14.3863 17.8779 14.5177 17.744 14.6163C17.6101 14.7149 17.5096 14.7477 17.4426 14.7477C17.3757 14.7477 17.3087 14.7149 17.2417 14.7149C17.1413 14.6492 17.0408 14.5506 16.9738 14.452C16.9069 14.3206 16.8734 14.1892 16.8399 14.0249C16.8064 13.8607 16.8064 13.6964 16.8064 13.565C16.8064 13.4336 16.8064 13.2693 16.8064 13.0393C16.8064 12.8094 16.8064 12.6451 16.8064 12.5794C16.8064 12.2837 16.8064 11.988 16.8399 11.6595C16.8399 11.331 16.8734 11.0681 16.8734 10.871C16.8734 10.6739 16.8734 10.4768 16.8734 10.2468C16.8734 10.0168 16.8734 9.85258 16.8399 9.72116C16.8064 9.58975 16.7729 9.49119 16.706 9.35978C16.639 9.22836 16.572 9.16266 16.4716 9.09695C16.3711 9.03124 16.2372 8.99839 16.1032 8.93268C15.7014 8.83412 15.1991 8.80127 14.5629 8.80127C13.1565 8.80127 12.2189 8.86698 11.8171 9.0641C11.6496 9.16266 11.5157 9.26122 11.3818 9.39263C11.2478 9.5569 11.2143 9.65546 11.3148 9.65546C11.7836 9.72116 12.0849 9.88543 12.2859 10.1483L12.3528 10.2797C12.4198 10.3782 12.4533 10.5425 12.5203 10.8053C12.5872 11.0681 12.6207 11.331 12.6207 11.6267C12.6542 12.1852 12.6542 12.6451 12.6207 13.0393C12.5872 13.4336 12.5537 13.7293 12.5203 13.9592C12.4868 14.1892 12.4198 14.3535 12.3528 14.4849C12.2859 14.6163 12.2524 14.7149 12.2189 14.7477C12.1854 14.7806 12.1854 14.7806 12.1519 14.8134C12.0515 14.8463 11.951 14.8791 11.8505 14.8791C11.7501 14.8791 11.6161 14.8134 11.4487 14.7149C11.2813 14.6163 11.1473 14.452 10.9799 14.2878C10.8125 14.0907 10.6451 13.8607 10.4107 13.5321C10.2098 13.2036 9.97536 12.8094 9.77445 12.3494L9.60702 12.0209C9.50656 11.8238 9.33913 11.4952 9.13822 11.101C8.9373 10.7068 8.76988 10.3125 8.60245 9.95114C8.53548 9.78687 8.43502 9.68831 8.33457 9.58975L8.2676 9.5569C8.23411 9.52404 8.16714 9.49119 8.10017 9.45834C7.99971 9.42548 7.93274 9.39263 7.83228 9.39263L4.68464 9.42548C4.34979 9.42548 4.14887 9.49119 4.04842 9.65546L4.01493 9.72116C3.98145 9.75402 3.98145 9.81972 3.98145 9.88543C3.98145 9.98399 4.01493 10.0825 4.04842 10.1811C4.51721 11.2324 5.0195 12.2509 5.55526 13.2365C6.09103 14.2221 6.55983 15.0105 6.96166 15.6019C7.36348 16.1933 7.76531 16.7518 8.16714 17.3103C8.56896 17.8359 8.83685 18.1973 8.97079 18.3287C9.10473 18.493 9.20519 18.5916 9.27216 18.6573L9.57353 18.9201C9.74096 19.0844 10.0423 19.3143 10.3772 19.5772C10.7455 19.84 11.1139 20.07 11.5492 20.3328C11.9845 20.5628 12.4868 20.7599 13.056 20.9241C13.6253 21.0884 14.1945 21.1541 14.7303 21.1213H16.0362C16.3041 21.0884 16.505 21.0227 16.639 20.8584L16.6725 20.7927C16.706 20.7599 16.7394 20.6942 16.7729 20.5956C16.8064 20.4971 16.8064 20.3985 16.8064 20.2999C16.8064 19.9714 16.8399 19.6757 16.8734 19.4129C16.9403 19.1501 17.0073 18.9529 17.0743 18.8215C17.1413 18.6901 17.2417 18.5916 17.3087 18.493C17.4091 18.3944 17.4761 18.3616 17.5096 18.3287C17.5431 18.2959 17.5766 18.2959 17.6101 18.2959C17.7775 18.2302 18.0119 18.2959 18.2463 18.4601C18.4807 18.6244 18.7151 18.8544 18.9495 19.1172C19.1839 19.38 19.4183 19.6757 19.7196 20.0043C20.021 20.3328 20.2889 20.5628 20.5233 20.727L20.7577 20.8584C20.9251 20.957 21.0926 21.0227 21.3604 21.1213C21.5948 21.187 21.8292 21.2198 21.9967 21.187L24.9434 21.1541C25.2448 21.1541 25.4457 21.1213 25.6131 21.0227C25.7805 20.9241 25.881 20.8256 25.9145 20.727C25.948 20.6285 25.948 20.4971 25.9145 20.3328C25.9145 20.0043 25.881 19.9057 25.881 19.84Z" fill="white"/>
</g>
<defs>
<clipPath id="clip0">
<rect width="22" height="22" fill="white" transform="translate(4 4.00049)"/>
</clipPath>
</defs>
</svg>

<svg width="30" height="30" fill="none" xmlns="http://www.w3.org/2000/svg"><path d="M0 15C0 6.716 6.716 0 15 0c8.284 0 15 6.716 15 15 0 8.285-6.716 15-15 15-8.284 0-15-6.715-15-15z" fill="#6B6868"/><g clip-path="url(#clip0)"><path d="M25.881 19.84c-.034-.066-.067-.099-.067-.131-.368-.69-1.105-1.512-2.177-2.497l-.033-.033c-.502-.46-.804-.756-.938-.92-.234-.296-.301-.591-.167-.92.1-.23.435-.723 1.038-1.478.301-.395.57-.723.737-.953 1.306-1.708 1.908-2.825 1.707-3.318l-.067-.099c-.033-.066-.167-.131-.368-.197-.2-.066-.435-.066-.736-.033l-3.316.033h-.234c-.067 0-.134.033-.134.033-.033 0-.033.033-.067.033l-.033.033-.134.131c-.034.066-.1.131-.1.197-.37.92-.771 1.741-1.24 2.53-.268.46-.535.854-.77 1.215-.234.329-.435.592-.603.756a4.37 4.37 0 01-.435.394c-.134.099-.234.132-.301.132-.067 0-.134-.033-.201-.033a1.01 1.01 0 01-.268-.263 1.607 1.607 0 01-.134-.427c-.034-.164-.034-.329-.034-.46v-.986c0-.295 0-.591.034-.92 0-.328.033-.59.033-.788v-.624c0-.23 0-.394-.033-.526a1.586 1.586 0 00-.134-.361.613.613 0 00-.234-.263c-.1-.066-.235-.099-.369-.164-.402-.099-.904-.132-1.54-.132-1.407 0-2.344.066-2.746.263a2.142 2.142 0 00-.435.329c-.134.164-.168.262-.067.262.469.066.77.23.97.493l.068.132c.067.098.1.263.167.525.067.263.1.526.1.822a9.865 9.865 0 010 1.412c-.033.395-.066.69-.1.92-.033.23-.1.395-.167.526s-.1.23-.134.263l-.067.065a.988.988 0 01-.301.066c-.1 0-.235-.066-.402-.164-.168-.099-.302-.263-.47-.427a11.506 11.506 0 01-.568-.756 9.623 9.623 0 01-.637-1.183l-.167-.328-.469-.92c-.2-.394-.368-.789-.536-1.15a1.03 1.03 0 00-.267-.361l-.067-.033a.735.735 0 00-.168-.099c-.1-.033-.167-.065-.268-.065l-3.147.032c-.335 0-.536.066-.637.23l-.033.066c-.034.033-.034.099-.034.164 0 .099.034.197.067.296.47 1.051.971 2.07 1.507 3.056.536.985 1.005 1.774 1.407 2.365.401.591.803 1.15 1.205 1.708.402.526.67.887.804 1.019.134.164.234.263.301.328l.302.263c.167.164.468.394.803.657.368.263.737.493 1.172.756.436.23.938.427 1.507.591.57.164 1.139.23 1.674.197h1.306c.268-.033.469-.098.603-.263l.034-.065a.53.53 0 00.1-.197.893.893 0 00.033-.296c0-.329.034-.624.067-.887a3.01 3.01 0 01.201-.591c.067-.132.168-.23.235-.329.1-.099.167-.131.2-.164.034-.033.068-.033.101-.033.168-.066.402 0 .636.164.235.164.47.394.704.657.234.263.468.559.77.887.301.329.569.559.803.723l.235.131c.167.099.335.165.602.263.235.066.47.099.637.066l2.946-.033c.302 0 .503-.033.67-.131.168-.099.268-.197.302-.296a.785.785 0 000-.394c0-.329-.034-.427-.034-.493z" fill="#fff"/></g><defs><clipPath id="clip0"><path fill="#fff" transform="translate(4 4)" d="M0 0h22v22H0z"/></clipPath></defs></svg>
